icons/svg/osmc_green/osmc_green_arch.svg

<?xml version="1.0" encoding="UTF-8" standalone="no"?>
<!-- Generator: Adobe Illustrator 16.0.4, SVG Export Plug-In . SVG Version: 6.00 Build 0)  -->

<svg
   xmlns:dc="http://purl.org/dc/elements/1.1/"
   xmlns:cc="http://creativecommons.org/ns#"
   xmlns:rdf="http://www.w3.org/1999/02/22-rdf-syntax-ns#"
   xmlns:svg="http://www.w3.org/2000/svg"
   xmlns="http://www.w3.org/2000/svg"
   xmlns:sodipodi="http://sodipodi.sourceforge.net/DTD/sodipodi-0.dtd"
   xmlns:inkscape="http://www.inkscape.org/namespaces/inkscape"
   version="1.1"
   id="Слой_1"
   x="0px"
   y="0px"
   width="16"
   height="16"
   viewBox="0 0 16 16"
   xml:space="preserve"
   inkscape:version="0.48.4 r9939"
   sodipodi:docname="osmc_blue_arch.svg"
   style="enable-background:new"><metadata
     id="metadata11"><rdf:RDF><cc:Work
         rdf:about=""><dc:format>image/svg+xml</dc:format><dc:type
           rdf:resource="http://purl.org/dc/dcmitype/StillImage" /><dc:title /></cc:Work></rdf:RDF></metadata><defs
     id="defs9" /><sodipodi:namedview
     pagecolor="#ffffff"
     bordercolor="#666666"
     borderopacity="1"
     objecttolerance="10"
     gridtolerance="10"
     guidetolerance="10"
     inkscape:pageopacity="0"
     inkscape:pageshadow="2"
     inkscape:window-width="1920"
     inkscape:window-height="1004"
     id="namedview7"
     showgrid="true"
     inkscape:zoom="16"
     inkscape:cx="8.413677"
     inkscape:cy="0.6070777"
     inkscape:window-x="1680"
     inkscape:window-y="0"
     inkscape:window-maximized="1"
     inkscape:current-layer="Слой_1"
     inkscape:snap-bbox="true"
     inkscape:snap-page="true"
     inkscape:snap-global="false"><inkscape:grid
       type="xygrid"
       id="grid3768" /></sodipodi:namedview><path
     style="font-size:medium;font-style:normal;font-variant:normal;font-weight:normal;font-stretch:normal;text-indent:0;text-align:start;text-decoration:none;line-height:normal;letter-spacing:normal;word-spacing:normal;text-transform:none;direction:ltr;block-progression:tb;writing-mode:lr-tb;text-anchor:start;baseline-shift:baseline;color:#000000;fill:#00ac26;fill-opacity:1;fill-rule:evenodd;stroke:none;visibility:visible;display:inline;overflow:visible;enable-background:accumulate;font-family:sans-serif"
     d="m 8.037109,2.7902 c -1.411748,0 -2.694212,0.4439 -3.560547,1.3653 -0.866334,0.9213 -1.236328,2.1972 -1.236328,3.582 l 0,2.9727 -1.240234,0 0,2.5 3.740234,0 0,-5.4727 c 0,-0.9547 0.234296,-1.5263 0.556641,-1.8691 0.322344,-0.3428 0.81236,-0.5782 1.740234,-0.5782 0.882074,0 1.319331,0.2182 1.632813,0.5625 0.313482,0.3444 0.55835,0.9495 0.589844,1.9258 l 0,5.4317 3.740234,0 0,-2.5 -1.240234,0 0,-2.9922 -0.002,-0.02 C 12.713786,6.3347 12.356947,5.0886 11.519485,4.1687 10.682024,3.2489 9.419141,2.7898 8.037063,2.7898 z"
     id="path5482"
     inkscape:connector-curvature="0" /></svg>

<svg width="16" height="16" viewBox="0 0 16 16" fill="none" xmlns="http://www.w3.org/2000/svg">
<path fill-rule="evenodd" clip-rule="evenodd" d="M8.03711 2.79019C6.62536 2.79019 5.3429 3.23409 4.47656 4.15549C3.61023 5.07679 3.24023 6.3527 3.24023 7.7375V10.7102H2V13.2102H5.74023V7.7375C5.74023 6.7828 5.97453 6.2112 6.29688 5.8684C6.61922 5.5256 7.10924 5.2902 8.03711 5.2902C8.91918 5.2902 9.35644 5.5084 9.66992 5.8527C9.9834 6.1971 10.2283 6.80219 10.2598 7.77849V13.2102H14V10.7102H12.7598V7.71799L12.7578 7.698C12.7138 6.3347 12.3569 5.0886 11.5195 4.1687C10.682 3.2489 9.41914 2.78979 8.03706 2.78979L8.03711 2.79019Z" fill="#00AC26"/>
</svg>
